public/new/svg3.svg

<svg fill="none" height="28" viewBox="0 0 29 28" width="29" xmlns="http://www.w3.org/2000/svg"><path d="m6.48999 12 3.88001-4.31c.1675-.18734.3994-.30474.6496-.32883.2501-.02409.5002.0469.7004.19883l5.07 3.9c.192.1496.4321.2241.6751.2093.243-.0147.4723-.1176.6449-.2893l5.38-5.38m-16.50001 16v-4m4.00001 4v-8m4 8v-6m4 6v-4m4 4v-8" stroke="#77787e"/></svg>

<svg width="29" height="28" viewBox="0 0 29 28" fill="none" xmlns="http://www.w3.org/2000/svg">
<path d="M6.48999 12L10.37 7.69C10.5375 7.50266 10.7694 7.38526 11.0196 7.36117C11.2697 7.33708 11.5198 7.40807 11.72 7.56L16.79 11.46C16.982 11.6096 17.2221 11.6841 17.4651 11.6693C17.7081 11.6546 17.9374 11.5517 18.11 11.38L23.49 6M6.98999 22V18M10.99 22V14M14.99 22V16M18.99 22V18M22.99 22V14" stroke="#77787E"/>
</svg>
